X:5
T:Flon-de-hon-de
C:Colin Cotter
M:6/8
K:G
D2 d c2 d|A2 d FGA|D2 d C2 d|ABc cBA|D2 d C2 d|A2 d FGA|
D2 d c2 d|DEF GAB :||:c3 B3|A3 GAB|cec BdB|AcA DED|G2 B G2 B|
ABc Bcd|G2 B G2 B|AGF DEF|G2 B G2 B|ABc Bcd|cec bdb|[1ABA GAB :|[2ABA GFE|]
